src/assets/images/reference-architecture/security/security-ref-arch-9.svg

<svg width="1257" height="544" viewBox="0 0 1257 544" fill="none" xmlns="http://www.w3.org/2000/svg">
<rect width="1257" height="544" fill="white"/>
<path d="M93 167L1214 167" stroke="#127D10" stroke-width="3"/>
<path d="M43.4142 106.586C42.6332 105.805 41.3668 105.805 40.5858 106.586L27.8579 119.314C27.0768 120.095 27.0768 121.361 27.8579 122.142C28.6389 122.923 29.9052 122.923 30.6863 122.142L42 110.828L53.3137 122.142C54.0947 122.923 55.3611 122.923 56.1421 122.142C56.9232 121.361 56.9232 120.095 56.1421 119.314L43.4142 106.586ZM44 431L44 108L40 108L40 431L44 431Z" fill="black"/>
<path d="M1215.41 491.414C1216.2 490.633 1216.2 489.367 1215.41 488.586L1202.69 475.858C1201.91 475.077 1200.64 475.077 1199.86 475.858C1199.08 476.639 1199.08 477.905 1199.86 478.686L1211.17 490L1199.86 501.314C1199.08 502.095 1199.08 503.361 1199.86 504.142C1200.64 504.923 1201.91 504.923 1202.69 504.142L1215.41 491.414ZM93 492L1214 492V488L93 488V492Z" fill="black"/>
<rect x="533" y="462" width="206" height="55" fill="white"/>
<path d="M603.858 482.317V480.068H619.557V482.317H612.975V501H610.441V482.317H603.858ZM623.142 501V485.301H625.554V501H623.142ZM624.369 482.684C623.899 482.684 623.493 482.524 623.153 482.204C622.819 481.884 622.652 481.499 622.652 481.049C622.652 480.599 622.819 480.214 623.153 479.894C623.493 479.574 623.899 479.414 624.369 479.414C624.839 479.414 625.241 479.574 625.575 479.894C625.916 480.214 626.086 480.599 626.086 481.049C626.086 481.499 625.916 481.884 625.575 482.204C625.241 482.524 624.839 482.684 624.369 482.684ZM629.972 501V485.301H632.303V487.754H632.507C632.834 486.916 633.362 486.265 634.091 485.802C634.82 485.332 635.696 485.097 636.718 485.097C637.754 485.097 638.616 485.332 639.304 485.802C639.999 486.265 640.541 486.916 640.929 487.754H641.092C641.494 486.943 642.098 486.299 642.902 485.822C643.706 485.338 644.67 485.097 645.794 485.097C647.198 485.097 648.346 485.536 649.238 486.415C650.131 487.287 650.577 488.647 650.577 490.493V501H648.165V490.493C648.165 489.335 647.848 488.507 647.215 488.009C646.581 487.512 645.835 487.263 644.976 487.263C643.873 487.263 643.017 487.597 642.411 488.265C641.805 488.926 641.501 489.764 641.501 490.779V501H639.048V490.248C639.048 489.355 638.759 488.636 638.18 488.091C637.6 487.539 636.854 487.263 635.941 487.263C635.314 487.263 634.728 487.43 634.183 487.764C633.645 488.098 633.209 488.561 632.875 489.154C632.548 489.74 632.384 490.418 632.384 491.188V501H629.972ZM661.57 501.327C660.057 501.327 658.752 500.993 657.655 500.325C656.565 499.651 655.723 498.711 655.131 497.505C654.545 496.292 654.252 494.881 654.252 493.273C654.252 491.665 654.545 490.248 655.131 489.021C655.723 487.788 656.548 486.827 657.604 486.139C658.667 485.444 659.907 485.097 661.324 485.097C662.142 485.097 662.95 485.233 663.747 485.505C664.544 485.778 665.27 486.221 665.924 486.834C666.578 487.441 667.099 488.245 667.488 489.246C667.876 490.248 668.07 491.481 668.07 492.946V493.968H655.969V491.883H665.617C665.617 490.997 665.44 490.207 665.086 489.512C664.738 488.817 664.241 488.268 663.593 487.866C662.953 487.464 662.197 487.263 661.324 487.263C660.364 487.263 659.532 487.502 658.831 487.979C658.136 488.449 657.601 489.062 657.226 489.819C656.851 490.575 656.664 491.386 656.664 492.251V493.641C656.664 494.827 656.868 495.832 657.277 496.656C657.693 497.474 658.268 498.097 659.004 498.527C659.74 498.949 660.595 499.16 661.57 499.16C662.203 499.16 662.776 499.072 663.287 498.895C663.805 498.711 664.251 498.438 664.626 498.077C665 497.709 665.29 497.252 665.494 496.707L667.825 497.361C667.579 498.152 667.167 498.847 666.588 499.446C666.009 500.039 665.293 500.503 664.442 500.836C663.59 501.164 662.633 501.327 661.57 501.327Z" fill="#002F71"/>
<rect x="14" y="373" width="206" height="55" transform="rotate(-90 14 373)" fill="white"/>
<path d="M53 330.594L32.0679 330.594L32.0679 323.521C32.0679 321.886 32.3473 320.543 32.906 319.494C33.458 318.445 34.2177 317.668 35.1853 317.164C36.1528 316.659 37.2533 316.407 38.4866 316.407C39.7199 316.407 40.8135 316.659 41.7674 317.164C42.7214 317.668 43.4709 318.441 44.016 319.484C44.5543 320.526 44.8234 321.858 44.8234 323.48L44.8234 329.204L42.534 329.204L42.534 323.562C42.534 322.444 42.3704 321.545 42.0434 320.863C41.7163 320.175 41.253 319.678 40.6534 319.371C40.0469 319.058 39.3247 318.901 38.4866 318.901C37.6485 318.901 36.916 319.058 36.2891 319.371C35.6622 319.685 35.1785 320.185 34.8378 320.874C34.4903 321.562 34.3165 322.472 34.3165 323.603L34.3165 328.059L53 328.059L53 330.594ZM43.5969 320.741L53 315.59L53 318.533L43.5969 323.603L43.5969 320.741ZM53.3271 306.097C53.3271 307.61 52.9932 308.915 52.3254 310.012C51.6509 311.102 50.7106 311.943 49.5045 312.536C48.2916 313.122 46.8812 313.415 45.2731 313.415C43.6651 313.415 42.2478 313.122 41.0213 312.536C39.788 311.943 38.8273 311.119 38.1391 310.063C37.444 309 37.0965 307.76 37.0965 306.342C37.0965 305.525 37.2328 304.717 37.5054 303.92C37.7779 303.123 38.2208 302.397 38.8341 301.743C39.4405 301.089 40.2445 300.568 41.2462 300.179C42.2478 299.791 43.4811 299.597 44.9461 299.597L45.9681 299.597L45.9681 311.698L43.8831 311.698L43.8831 302.05C42.9973 302.05 42.2069 302.227 41.5119 302.581C40.8169 302.929 40.2684 303.426 39.8664 304.073C39.4643 304.714 39.2633 305.47 39.2633 306.342C39.2633 307.303 39.5018 308.134 39.9788 308.836C40.4489 309.531 41.0622 310.066 41.8185 310.441C42.5749 310.816 43.3857 311.003 44.2511 311.003L45.6411 311.003C46.8267 311.003 47.8317 310.799 48.6562 310.39C49.4738 309.974 50.0973 309.398 50.5266 308.662C50.949 307.927 51.1603 307.071 51.1603 306.097C51.1603 305.463 51.0717 304.891 50.8945 304.38C50.7106 303.862 50.438 303.416 50.0769 303.041C49.7089 302.666 49.2524 302.377 48.7073 302.172L49.3614 299.842C50.1518 300.087 50.8468 300.5 51.4464 301.079C52.0392 301.658 52.5026 302.373 52.8365 303.225C53.1635 304.077 53.3271 305.034 53.3271 306.097ZM58.8871 285.216L50.5879 285.216L50.5879 285.421C50.8741 285.598 51.2352 285.85 51.6713 286.177C52.1006 286.504 52.4856 286.971 52.8262 287.577C53.1601 288.184 53.3271 288.991 53.3271 289.999C53.3271 291.308 52.9966 292.463 52.3356 293.464C51.6679 294.466 50.7276 295.249 49.5147 295.815C48.2951 296.381 46.8539 296.663 45.1914 296.663C43.5424 296.663 42.1115 296.381 40.8987 295.815C39.6858 295.249 38.7489 294.462 38.088 293.454C37.427 292.446 37.0965 291.28 37.0965 289.959C37.0965 288.936 37.2669 288.129 37.6076 287.536C37.9415 286.937 38.323 286.48 38.7523 286.167C39.1748 285.846 39.5223 285.598 39.7948 285.421L39.7948 285.134L37.301 285.134L37.301 282.804L58.8871 282.804L58.8871 285.216ZM51.1603 289.672C51.1603 288.705 50.9082 287.887 50.4039 287.219C49.8929 286.552 49.1877 286.044 48.2882 285.696C47.382 285.349 46.3361 285.175 45.1505 285.175C43.9785 285.175 42.953 285.346 42.074 285.686C41.1882 286.027 40.5 286.531 40.0095 287.199C39.512 287.867 39.2633 288.691 39.2633 289.672C39.2633 290.694 39.5257 291.546 40.0503 292.228C40.5682 292.902 41.2734 293.41 42.166 293.75C43.0518 294.084 44.0466 294.251 45.1505 294.251C46.2679 294.251 47.2832 294.081 48.1963 293.74C49.1025 293.393 49.8248 292.882 50.363 292.207C50.8945 291.526 51.1603 290.681 51.1603 289.672ZM46.5814 268.495L37.301 268.495L37.301 266.083L53 266.083L53 268.495L50.3426 268.495L50.3426 268.659C51.1398 269.026 51.8178 269.599 52.3765 270.376C52.9285 271.152 53.2044 272.134 53.2044 273.319C53.2044 274.3 52.9898 275.173 52.5605 275.936C52.1244 276.699 51.4703 277.298 50.5981 277.735C49.7191 278.171 48.6119 278.389 47.2764 278.389L37.301 278.389L37.301 275.977L47.1129 275.977C48.2576 275.977 49.1706 275.656 49.852 275.016C50.5334 274.369 50.8741 273.544 50.8741 272.542C50.8741 271.943 50.7208 271.333 50.4142 270.713C50.1075 270.086 49.6374 269.561 49.0037 269.139C48.37 268.71 47.5626 268.495 46.5814 268.495ZM53.3271 255.083C53.3271 256.596 52.9932 257.9 52.3254 258.997C51.6509 260.088 50.7106 260.929 49.5045 261.522C48.2916 262.108 46.8812 262.401 45.2731 262.401C43.6651 262.401 42.2478 262.108 41.0213 261.522C39.788 260.929 38.8273 260.105 38.1391 259.048C37.444 257.986 37.0965 256.745 37.0965 255.328C37.0965 254.51 37.2328 253.703 37.5054 252.906C37.7779 252.109 38.2208 251.383 38.8341 250.729C39.4405 250.075 40.2445 249.553 41.2462 249.165C42.2478 248.777 43.4811 248.582 44.9461 248.582L45.9681 248.582L45.9681 260.684L43.8831 260.684L43.8831 251.035C42.9973 251.035 42.2069 251.213 41.5119 251.567C40.8169 251.914 40.2684 252.412 39.8664 253.059C39.4643 253.7 39.2633 254.456 39.2633 255.328C39.2633 256.289 39.5018 257.12 39.9788 257.822C40.4489 258.517 41.0622 259.052 41.8185 259.427C42.5749 259.801 43.3857 259.989 44.2511 259.989L45.6411 259.989C46.8267 259.989 47.8317 259.784 48.6562 259.376C49.4738 258.96 50.0973 258.384 50.5266 257.648C50.949 256.912 51.1603 256.057 51.1603 255.083C51.1603 254.449 51.0717 253.877 50.8945 253.366C50.7106 252.848 50.438 252.402 50.0769 252.027C49.7089 251.652 49.2524 251.363 48.7073 251.158L49.3614 248.828C50.1518 249.073 50.8468 249.485 51.4464 250.064C52.0392 250.644 52.5026 251.359 52.8365 252.211C53.1635 253.063 53.3271 254.02 53.3271 255.083ZM40.8169 233.793L41.4301 235.96C41.069 236.096 40.7181 236.297 40.3774 236.563C40.0299 236.822 39.7437 237.176 39.5189 237.626C39.294 238.076 39.1816 238.651 39.1816 239.353C39.1816 240.314 39.403 241.115 39.8459 241.755C40.282 242.389 40.8373 242.706 41.5119 242.706C42.1115 242.706 42.5851 242.487 42.9326 242.051C43.2801 241.615 43.5697 240.934 43.8013 240.007L44.3737 237.677C44.7144 236.273 45.2356 235.227 45.9375 234.539C46.6325 233.851 47.5285 233.507 48.6255 233.507C49.5249 233.507 50.329 233.766 51.0376 234.284C51.7463 234.795 52.305 235.51 52.7138 236.43C53.1226 237.35 53.3271 238.42 53.3271 239.639C53.3271 241.241 52.9796 242.566 52.2845 243.615C51.5895 244.665 50.5743 245.329 49.2388 245.608L48.6664 243.319C49.5113 243.101 50.145 242.689 50.5675 242.082C50.9899 241.469 51.2011 240.668 51.2011 239.68C51.2011 238.556 50.9627 237.663 50.4857 237.002C50.0019 236.335 49.4227 236.001 48.7482 236.001C48.2031 236.001 47.7465 236.192 47.3786 236.573C47.0038 236.955 46.7245 237.541 46.5405 238.331L45.9273 240.948C45.5866 242.385 45.0585 243.441 44.343 244.116C43.6208 244.784 42.7179 245.118 41.6345 245.118C40.7487 245.118 39.9652 244.869 39.2838 244.372C38.6024 243.867 38.0675 243.183 37.6791 242.317C37.2907 241.445 37.0965 240.457 37.0965 239.353C37.0965 237.8 37.4372 236.58 38.1186 235.694C38.8 234.802 39.6994 234.168 40.8169 233.793ZM37.301 223.049L39.3451 223.049L39.3451 231.184L37.301 231.184L37.301 223.049ZM33.5397 228.813L33.5397 226.401L48.5029 226.401C49.1843 226.401 49.6953 226.302 50.036 226.105C50.3699 225.9 50.5947 225.641 50.7106 225.328C50.8196 225.007 50.8741 224.67 50.8741 224.316C50.8741 224.05 50.8605 223.832 50.8332 223.662C50.7991 223.491 50.7719 223.355 50.7514 223.253L52.9182 222.762C52.9796 222.926 53.0409 223.154 53.1022 223.447C53.1703 223.74 53.2044 224.111 53.2044 224.561C53.2044 225.243 53.0579 225.91 52.7649 226.564C52.4719 227.212 52.0256 227.75 51.426 228.179C50.8264 228.602 50.0701 228.813 49.157 228.813L33.5397 228.813ZM40.8169 208.581L41.4301 210.748C41.069 210.884 40.7181 211.085 40.3774 211.351C40.0299 211.61 39.7437 211.964 39.5189 212.414C39.294 212.864 39.1816 213.439 39.1816 214.141C39.1816 215.102 39.403 215.903 39.8459 216.543C40.282 217.177 40.8373 217.494 41.5119 217.494C42.1115 217.494 42.5851 217.276 42.9326 216.839C43.2801 216.403 43.5697 215.722 43.8013 214.795L44.3737 212.465C44.7144 211.061 45.2356 210.015 45.9375 209.327C46.6325 208.639 47.5285 208.295 48.6255 208.295C49.5249 208.295 50.329 208.554 51.0376 209.072C51.7463 209.583 52.305 210.298 52.7138 211.218C53.1226 212.138 53.3271 213.208 53.3271 214.427C53.3271 216.029 52.9796 217.354 52.2845 218.403C51.5895 219.453 50.5743 220.117 49.2388 220.396L48.6664 218.107C49.5113 217.889 50.145 217.477 50.5675 216.87C50.9899 216.257 51.2011 215.456 51.2011 214.468C51.2011 213.344 50.9627 212.451 50.4857 211.79C50.0019 211.123 49.4227 210.789 48.7482 210.789C48.2031 210.789 47.7465 210.98 47.3786 211.361C47.0038 211.743 46.7245 212.329 46.5405 213.119L45.9272 215.736C45.5866 217.173 45.0585 218.229 44.343 218.904C43.6208 219.572 42.7179 219.906 41.6345 219.906C40.7487 219.906 39.9652 219.657 39.2838 219.16C38.6024 218.655 38.0675 217.971 37.6791 217.105C37.2907 216.233 37.0965 215.245 37.0965 214.141C37.0965 212.588 37.4372 211.368 38.1186 210.482C38.8 209.59 39.6994 208.956 40.8169 208.581Z" fill="#002F71"/>
<path d="M171.439 199.647L96 267.751V431H1214V255.733L1068.5 232.698L903.34 311.318L785.262 123.531L534.11 232.698L345.277 103L248.753 342.365L171.439 199.647Z" stroke="#3E74FF" stroke-width="4"/>
<path d="M171.439 199.647L96 267.751V431H1214V255.733L1068.5 232.698L903.34 311.318L785.262 123.531L534.11 232.698L345.277 103L248.753 342.365L171.439 199.647Z" fill="#D9D9D9" stroke="#3E74FF" stroke-width="4"/>
<path d="M320 165L435 165" stroke="#FF0000" stroke-width="4"/>
<path d="M690 165L811 165" stroke="#FF0000" stroke-width="4"/>
<mask id="mask0_55_795" style="mask-type:alpha" maskUnits="userSpaceOnUse" x="94" y="99" width="1122" height="334">
<path d="M171.439 199.647L96 267.751V431H1214V255.733L1068.5 232.698L903.34 311.318L785.262 123.531L534.11 232.698L345.277 103L248.753 342.365L171.439 199.647Z" stroke="#3E74FF" stroke-width="4"/>
</mask>
<g mask="url(#mask0_55_795)">
<rect x="242" y="-57" width="684" height="224" fill="#FF0000"/>
</g>
<path d="M320 164L344.598 104L432 164H320Z" fill="#FF0000"/>
<path d="M811.5 164.5L785.5 123.5L689 165.5L811.5 164.5Z" fill="#FF0000"/>
<path d="M96 431L96 69" stroke="#10377D" stroke-width="6"/>
<path d="M93 431L1214 431" stroke="#10377D" stroke-width="6"/>
</svg>

<svg xmlns="http://www.w3.org/2000/svg" width="1257" height="544" fill="none" viewBox="0 0 1257 544"><path fill="#fff" d="M0 0h1257v544H0z"/><path stroke="#127D10" stroke-width="3" d="M93 167h1121"/><path fill="#000" d="M43.414 106.586a2 2 0 0 0-2.828 0l-12.728 12.728a2 2 0 1 0 2.828 2.828L42 110.828l11.314 11.314a2 2 0 0 0 2.828-2.828zM44 431V108h-4v323zm1171.41 60.414c.79-.781.79-2.047 0-2.828l-12.72-12.728a2.001 2.001 0 0 0-2.83 2.828L1211.17 490l-11.31 11.314a2.001 2.001 0 0 0 2.83 2.828zM93 492h1121v-4H93z"/><path fill="#fff" d="M533 462h206v55H533z"/><path fill="#002F71" d="M603.858 482.317v-2.249h15.699v2.249h-6.582V501h-2.534v-18.683zM623.142 501v-15.699h2.412V501zm1.227-18.316q-.705 0-1.216-.48a1.54 1.54 0 0 1-.501-1.155q0-.675.501-1.155.51-.48 1.216-.48.705 0 1.206.48.511.48.511 1.155t-.511 1.155a1.68 1.68 0 0 1-1.206.48M629.972 501v-15.699h2.331v2.453h.204q.49-1.257 1.584-1.952 1.094-.705 2.627-.705 1.554 0 2.586.705 1.043.695 1.625 1.952h.163a4.6 4.6 0 0 1 1.81-1.932q1.206-.726 2.892-.725 2.106 0 3.444 1.318 1.34 1.309 1.339 4.078V501h-2.412v-10.507q0-1.737-.95-2.484t-2.239-.746q-1.655 0-2.565 1.002-.91.991-.91 2.514V501h-2.453v-10.752q0-1.34-.868-2.157-.87-.828-2.239-.828-.94 0-1.758.501a3.8 3.8 0 0 0-1.308 1.39q-.49.879-.491 2.034V501zm31.598.327q-2.27 0-3.915-1.002-1.636-1.011-2.524-2.82-.879-1.82-.879-4.232t.879-4.252q.889-1.85 2.473-2.882 1.594-1.042 3.72-1.042 1.227 0 2.423.408a6 6 0 0 1 2.177 1.329q.98.91 1.564 2.412.582 1.503.582 3.7v1.022h-12.101v-2.085h9.648q0-1.329-.531-2.371a4 4 0 0 0-1.493-1.646q-.96-.603-2.269-.603-1.44 0-2.493.716a4.7 4.7 0 0 0-1.605 1.84 5.4 5.4 0 0 0-.562 2.432v1.39q0 1.779.613 3.015.624 1.226 1.727 1.871 1.104.633 2.566.633.95 0 1.717-.265a3.7 3.7 0 0 0 1.339-.818 3.7 3.7 0 0 0 .868-1.37l2.331.654a5.2 5.2 0 0 1-1.237 2.085q-.869.89-2.146 1.39-1.278.491-2.872.491"/><path fill="#fff" d="M14 373V167h55v206z"/><path fill="#002F71" d="M53 330.594H32.068v-7.073q0-2.453.838-4.027.828-1.574 2.28-2.33 1.45-.757 3.3-.757 1.851 0 3.281.757 1.431.756 2.249 2.32.807 1.563.807 3.996v5.724h-2.289v-5.642q0-1.677-.49-2.699-.492-1.032-1.39-1.492-.911-.47-2.167-.47-1.258 0-2.198.47t-1.451 1.503q-.522 1.032-.522 2.729v4.456H53zm-9.403-9.853L53 315.59v2.943l-9.403 5.07zm9.73-14.644q0 2.27-1.002 3.915-1.011 1.635-2.82 2.524-1.82.879-4.232.879t-4.252-.879q-1.85-.89-2.882-2.473-1.043-1.594-1.043-3.721 0-1.226.41-2.422a6 6 0 0 1 1.328-2.177q.909-.98 2.412-1.564 1.503-.582 3.7-.582h1.022v12.101h-2.085v-9.648q-1.329 0-2.371.531a4 4 0 0 0-1.646 1.492q-.603.961-.603 2.269 0 1.441.716 2.494a4.7 4.7 0 0 0 1.84 1.605 5.4 5.4 0 0 0 2.432.562h1.39q1.778 0 3.015-.613 1.227-.624 1.87-1.728.634-1.103.634-2.565 0-.95-.265-1.717a3.7 3.7 0 0 0-.818-1.339 3.7 3.7 0 0 0-1.37-.869l.654-2.33q1.186.368 2.085 1.237.89.868 1.39 2.146.492 1.278.491 2.872m5.56-20.881h-8.3v.205q.43.266 1.084.756.645.49 1.155 1.4.501.91.501 2.422 0 1.964-.991 3.465-1.002 1.502-2.821 2.351-1.83.849-4.324.848-2.474 0-4.292-.848-1.82-.849-2.811-2.361-.992-1.513-.992-3.495 0-1.534.512-2.423.5-.899 1.144-1.369.634-.481 1.043-.746v-.287H37.3v-2.33h21.586zm-7.727 4.456q0-1.45-.756-2.453-.766-1-2.116-1.523-1.36-.52-3.137-.521-1.759 0-3.077.511-1.329.511-2.064 1.513-.747 1.002-.747 2.473 0 1.533.787 2.556.777 1.011 2.116 1.522 1.328.501 2.985.501 1.675 0 3.045-.511 1.36-.52 2.167-1.533.797-1.022.797-2.535m-4.579-21.177h-9.28v-2.412H53v2.412h-2.657v.164q1.196.551 2.033 1.717.829 1.165.828 2.943 0 1.472-.644 2.617-.654 1.144-1.962 1.799-1.318.654-3.322.654h-9.975v-2.412h9.812q1.718 0 2.739-.961 1.022-.97 1.022-2.474 0-.899-.46-1.829-.46-.94-1.41-1.574-.95-.644-2.423-.644m6.746-13.412q0 2.269-1.002 3.914-1.011 1.636-2.82 2.525-1.82.879-4.232.879t-4.252-.879q-1.85-.889-2.882-2.474-1.043-1.594-1.043-3.72 0-1.227.41-2.422a6 6 0 0 1 1.328-2.177q.909-.982 2.412-1.564t3.7-.583h1.022v12.102h-2.085v-9.649q-1.329 0-2.371.532a4 4 0 0 0-1.646 1.492q-.603.961-.603 2.269 0 1.441.716 2.494a4.7 4.7 0 0 0 1.84 1.605 5.4 5.4 0 0 0 2.432.562h1.39q1.778 0 3.015-.613 1.227-.624 1.87-1.728.634-1.104.634-2.565 0-.95-.265-1.717a3.7 3.7 0 0 0-.818-1.339 3.7 3.7 0 0 0-1.37-.869l.654-2.33q1.186.368 2.085 1.236.89.87 1.39 2.147.492 1.278.491 2.872m-12.51-21.29.613 2.167a4 4 0 0 0-1.053.603q-.52.388-.858 1.063t-.337 1.727q0 1.442.664 2.402.654.951 1.666.951.9 0 1.42-.655.522-.654.87-2.044l.572-2.33q.51-2.106 1.563-3.138 1.044-1.032 2.689-1.032 1.349 0 2.412.777 1.062.766 1.676 2.146t.613 3.209q0 2.403-1.042 3.976-1.042 1.575-3.046 1.993l-.573-2.289q1.267-.327 1.902-1.237.633-.92.633-2.402 0-1.686-.715-2.678-.726-1-1.738-1.001-.817 0-1.37.572-.562.573-.837 1.758l-.614 2.617q-.51 2.156-1.584 3.168-1.083 1.002-2.709 1.002-1.328 0-2.35-.746-1.022-.757-1.605-2.055-.583-1.308-.583-2.964 0-2.33 1.023-3.659 1.021-1.338 2.698-1.901M37.3 223.049h2.044v8.135H37.3zm-3.761 5.764v-2.412h14.963q1.022 0 1.533-.296.501-.308.675-.777.163-.481.163-1.012 0-.399-.04-.654l-.083-.409 2.167-.491q.093.246.184.685.102.44.102 1.114 0 1.023-.44 2.003a4 4 0 0 1-1.338 1.615q-.9.634-2.269.634zm7.277-20.232.613 2.167a4 4 0 0 0-1.053.603q-.52.388-.858 1.063t-.337 1.727q0 1.442.664 2.402.654.951 1.666.951.9 0 1.42-.655.522-.654.87-2.044l.572-2.33q.51-2.106 1.563-3.138 1.044-1.032 2.689-1.032 1.349 0 2.412.777 1.062.766 1.676 2.146t.613 3.209q0 2.403-1.042 3.976-1.042 1.575-3.046 1.993l-.573-2.289q1.267-.327 1.902-1.237.633-.92.633-2.402 0-1.686-.715-2.678-.726-1-1.738-1.001-.817 0-1.37.572-.562.573-.837 1.758l-.614 2.617q-.51 2.155-1.584 3.168-1.083 1.002-2.709 1.002-1.328 0-2.35-.746-1.022-.757-1.605-2.055-.583-1.308-.583-2.964 0-2.33 1.023-3.659 1.021-1.338 2.698-1.901"/><path stroke="#3E74FF" stroke-width="4" d="M171.439 199.647 96 267.751V431h1118V255.733l-145.5-23.035-165.16 78.62-118.078-187.787L534.11 232.698 345.277 103l-96.524 239.365z"/><path fill="#D9D9D9" stroke="#3E74FF" stroke-width="4" d="M171.439 199.647 96 267.751V431h1118V255.733l-145.5-23.035-165.16 78.62-118.078-187.787L534.11 232.698 345.277 103l-96.524 239.365z"/><path stroke="red" stroke-width="4" d="M320 165h115m255 0h121"/><mask id="mask0_55_795" width="1122" height="334" x="94" y="99" maskUnits="userSpaceOnUse" style="mask-type:alpha"><path stroke="#3E74FF" stroke-width="4" d="M171.439 199.647 96 267.751V431h1118V255.733l-145.5-23.035-165.16 78.62-118.078-187.787L534.11 232.698 345.277 103l-96.524 239.365z"/></mask><g mask="url(#mask0_55_795)"><path fill="red" d="M242-57h684v224H242z"/></g><path fill="red" d="m320 164 24.598-60L432 164zm491.5.5-26-41-96.5 42z"/><path stroke="#10377D" stroke-width="6" d="M96 431V69m-3 362h1121"/></svg>
